X:61
T:Horra
O:rumania
M:2/4
L:1/8
Q:1/4=200
K:Am
V:1
"Am" AB c_e |e2 e2 |c2 c2 |"D#" _e4 |
"Am" e2 e2 |cA c2 |"D#" _e4 |"Am" e3 z|
A Bc _e|e2 e2 |cA c2 |"D#" _e4 |
"Am" e2 e2 |c2 "E7" e2 |"Am" (A4 |A2) z2 :|
"Am" e^f ge |ag g.^f |^fe e_e |"D#" _e3 z|
"Am" e2 e2 |c2 "D#" _e2 |"Am" e4 |e2 z2 |
"Am" z2 (a2 |a2) (g2 |g2) (^f2 |^f2) e2 |
"D#" _e2 _e2 |"E7" c2 e2 |"Am" A4 |A4 |]
